X: 20853
M: 2/4
L: 1/16
K: C
c2c2 cBcd | e2c2 c2cd | e2c2 e2ge | dcde d2G2 |\
c2e2c2e2 | dcde f2gf | e2ef efed | c2e2c2 |]
ef |\
g2g2 g2eg | f2d2 c2Bc | d2d2 d2ge | fgef d2G2 |\
c2e2c2e2 | dcde f2gf | e2ef efed | c2e2c2 |]


